X:1
T:There Is Room
T:Alfred Beirly, 1887
T:There Is Room
T:Public Domain
T:Public Domain
C:Alfred Beirly, 1887
Z:Public Domain
%%score ( 1 2 ) ( 3 4 )
L:1/8
M:9/8
K:Ab
V:1 treble 
V:2 treble 
V:3 bass 
V:4 bass 
V:1
 ([CE][DF])[CE] | [CA]3 [CE]3 (cB)[EA] | [DF]6 ([FA][EG])[DF] | [CE]3 [EA]3 (B2 c) | %4
w: 1.~Wea- * ry|spir- it, seek- * ing|In the * Sav-|ior re- pose; *|
w: 2.~Art * thou|wan- d’ring from * the|Take this * prom-|ise di- vine: *|
w: 3.~La- * den|soul, with sin * op-|Je- sus * beck-|ons thee home; *|
w: 4.~Wea- * ry|spir- it, bur- * dened|Seek the * Com-|fort- er nigh; *|
 [EB]6 (Bc)[Ed] | [Ec]3 [CA]3 (BA)[DF] | [CE]6 (cB)[EA] | [DB]3 [DA]3 [DG]3 | [CA]6 z3 |: %9
w: thy bur- * den|His feet, He * will|en thy * woes.|||
w: re- pent- * ant|wilt come, Je- * sus’|don is * thine.|come be- liev-|ing,|
w: thou rest * in|em- brace? Leave * thy|row and * come.|||
w: con- fid- * ing|His love; Je- * sus|ev- ery * sigh.|||
"^Refrain" (A2 z A2 E) (ed)[Ec] | [Ec]3 [EB]2 z (dc)[DB] | [CA]3 [EG]3 [DF]3 | %12
w: |||
w: whol- * * ly * trust-|free; There is * room|the pre- sence|
w: |||
w: |||
 [CE]6 [CE]2 [=B,=D] [CE]3 [CA]3 [Ec]3 | [DB]3 [FA]3 [DF]3 | [CE]3 [EA]3 [EB]3 | [Ec]6 z3 :| %16
w: ||||
w: of Je- sus for thee, Je-|sus for thee.|||
w: ||||
w: ||||
 [CE]3 [Ec]3 [DB]3 | [CA]6 |] %18
w: ||
w: ||
w: ||
w: ||
V:2
 x3 | x6 E2 x | x9 | x6 E3 | x6 E2 x | x6 D2 x | x6 E2 x | x9 | x9 |: e6 E2 x | x6 E2 x | x9 | %12
w: |rest,||Lay|at|light-|||||||
w: |fold?||If|thou|par-|Come,|||ing, be|in||
w: |pressed,||Wilt|His|sor-|||||||
w: |one,||Rest|in|hears|||||||
 x18 | x9 | x9 | x9 :| x9 | x6 |] %18
w: ||||||
w: ||||||
w: ||||||
w: ||||||
V:3
 [A,,A,]2 [A,,A,] | [A,,E,]3 [A,,A,]3 ([A,,A,][B,,G,])[C,A,] | [D,A,]6 [D,A,]2 [D,A,] | %3
w: ~ ~|~ ~ ~ * ~|~ ~ ~|
 [A,,A,]3 [C,A,]3 (G,2 A,) | [E,G,]6 (G,A,)[E,B,] | A,3 [A,,E,]3 [D,F,]2 [D,A,] | %6
w: ~ ~ ~ *|~ ~ * ~|~ ~ ~ ~|
 [A,,A,]6 ([A,,A,][B,,G,])[C,A,] | [D,F,]3 [D,F,]3 [E,B,]3 | [A,,A,]6 z3 |: %9
w: ~ ~ * ~|~ Come, come,|O|
 [A,C]2 z [A,C]2 [A,C] ([A,C][G,B,])A, | [E,A,]3 [E,G,]2 z (B,A,)[E,G,] | %11
w: come, be- liev- ing, * *||
 [A,,A,]3 [C,A,]3 [D,A,]3 | [A,,A,]6 [A,,A,]2 [A,,A,] [A,,A,]3 [A,,E,]3 [A,,A,]3 | %13
w: ||
 [D,F,]3 [D,A,]3 [D,A,]3 | [A,,A,]3 [C,A,]3 [E,G,]3 | A,6 z3 :| [E,A,]3 [E,A,]3 [E,G,]3 | %17
w: ||||
 [A,,A,]6 |] %18
w: |
V:4
 x3 | x9 | x9 | x6 E,3 | x6 E,2 x | A,3 x6 | x9 | x9 | x9 |: x8 A, | x6 E,2 x | x9 | x18 | x9 | %14
w: |||~|~|~|||||||||
 x9 | A,6 x3 :| x9 | x6 |] %18
w: ||||

